!!!OTL: Sauf - Messe.
!!!ARE: Europa, Mitteleuropa, Deutschland
!!!SCT: A0327
!!!TXL: @@GMH, (@@LAT)
!!!YEM: Copyright 1995, estate of Helmut Schaffrath.
**kern	**text
*M4/2	*
*met(c|)	*
*clefC3	*
*k[]	*
*G:mix	*
!LO:TX:a:t=mixolyd.	!
!LO:TX:a:t=P:1r in the source:problem	!
{2r	.
2G	Jſt
=1	=1
2G	kei-
2G	-ner
2A	hie,
2B	der
=2	=2
2.c/	ſpricht
4c/	ʒu
1c}	mir:
=3	=3
{2d	gu-
4d	-ter
4d	ge-
2B	-ſell,
2B	den
=4	=4
2c/	bring
2c/	ich
2A	dir,
2A	den
=5	=5
2d	bring
2d	ich
1d	dir!
=6	=6
2r}	.
{2A	ein
2c/	gläs-
2c/	-lein
=7	=7
2B	wein,
2B	drey
2A	o-
2A	-der
=8	=8
1G	vier,
2r}	.
{2B	drey
=9	=9
2A	o-
2A	-der
1G	vier,
=10	=10
2r	.
2B	drey
2A	o-
2A	-der
=11	=11
1G}	vier.
=12||	=12||
!LO:TX:a:t=P:unclear beginning of the next repetition:problem	!
!LO:TX:a:t=II. Pars.	!
{2d	Wein-
2d	-lein,
2B	da
2c/	her-
=13	=13
1d	-ein!
1r}	.
=14	=14
{2d	Wein-
2d	-lein,
2B	da
2c/	her-
=15	=15
1d	-ein!
1r}	.
=16	=16
{2d	Was
2d	ſol
2d	mir
2e	der
=17	=17
1d	pfen-
1B	-ning,
=18	=18
2c/	wann
2c/	wir
2A	nim-
2A	-mer
=19	=19
1G	ſein?
1r}	.
=20	=20
{2d	Was
2d	ſol
2d	mir
2e	der
=21	=21
1d	pfen-
1B	-ning,
=22	=22
2c/	wann
2c/	wir
2A	nim-
2A	-mer
=23	=23
1G	ſein?
1r}	.
=24	=24
{2.c	Ky-
4d	.
1e	.
=25	=25
1f	.
1d	-ri-
=26	=26
0c	-e-
=27-	=27-
*lig	*
1d	-ley-
1f	.
*Xlig	*
=28	=28
0e}	-son,
=29||	=29||
{1d	Ky-
2.f	.
4f	-ri-
=30	=30
2.e	-e-
4d	.
2c	.
2B	.
=31	=31
2A	.
2.d	-ley-
4c	.
2B	.
=32	=32
1A	.
1G/ll}	-son.
==	==
!!!GTL: Trink. und Zechlieder, incl. Fastnacht- u. Martinslieder
!!!AGN: Romanze, Ballade, Lied, Trinklied
!! Forster II No. 36
!!!ONB: ESAC (Essen Associative Code) Database: ALTDEU
!!!AMT: simple quadruple
!!!AIN: vox
!!!EED: Helmut Schaffrath
!!!EEV: 1.0
!!!RDF**kern: l = terminal long
!!!AMD: Mixolydian
!!!URL-scan: https://rosdok.uni-rostock.de/mcrviewer/recordIdentifier/rosdok_ppn738218359/iview2/phys_0476.iview2?x=-1625.8563452843127&y=19.34448655275628&scale=0.28036994991815867&rotation=0&layout=singlePageLayout&logicalDiv=log_0012
!!!ENC: Anna Maria Matuszewska
!!!EEV: 2024/13/03
*-	*-
